polaris-icons/icons/newicons/SimplifyMajor.svg

<svg width="20" height="20" viewBox="0 0 20 20" fill="none" xmlns="http://www.w3.org/2000/svg">
<path d="M17.75 8.25C18.1642 8.25 18.5 7.91422 18.5 7.5C18.5 7.08579 18.1642 6.75 17.75 6.75L11.963 6.75L13.8011 4.75871C14.0821 4.45435 14.0631 3.97985 13.7587 3.6989C13.4543 3.41795 12.9798 3.43693 12.6989 3.74129L9.6989 6.99129C9.4337 7.27859 9.4337 7.72142 9.6989 8.00871L12.6989 11.2587C12.9798 11.5631 13.4543 11.5821 13.7587 11.3011C14.0631 11.0202 14.0821 10.5457 13.8011 10.2413L11.963 8.25L17.75 8.25Z" fill="black"/>
<path d="M2.25 11.75C1.83579 11.75 1.5 12.0858 1.5 12.5C1.5 12.9142 1.83579 13.25 2.25 13.25H8.03701L6.1989 15.2413C5.91794 15.5457 5.93692 16.0201 6.24129 16.3011C6.54566 16.5821 7.02015 16.5631 7.3011 16.2587L10.3011 13.0087C10.5663 12.7214 10.5663 12.2786 10.3011 11.9913L7.3011 8.74129C7.02015 8.43692 6.54566 8.41794 6.24129 8.69889C5.93692 8.97985 5.91794 9.45434 6.1989 9.75871L8.03701 11.75H2.25Z" fill="black"/>
</svg>

<svg viewBox="0 0 20 20" fill="none" xmlns="http://www.w3.org/2000/svg"><path d="M17.75 8.25a.75.75 0 0 0 0-1.5h-5.787l1.838-1.991a.75.75 0 1 0-1.102-1.018l-3 3.25a.75.75 0 0 0 0 1.018l3 3.25a.75.75 0 1 0 1.102-1.018l-1.838-1.991h5.787Z" fill="#5C5F62"/><path d="M2.25 11.75a.75.75 0 0 0 0 1.5h5.787l-1.838 1.991a.75.75 0 1 0 1.102 1.018l3-3.25a.75.75 0 0 0 0-1.018l-3-3.25a.75.75 0 1 0-1.102 1.018l1.838 1.991h-5.787Z" fill="#5C5F62"/></svg>
